X: 5887
T: Cam Ye By Athole
R: waltz
M: 3/4
K: Dmajor
|:F>E D D2 B|A F<d F3/2 E<D|F3/2 E<D E F<D|d3/2 c<B B A<F|
A3/2 B<d e3/2 d<B|B3/2 A<F A3/2 B<d|F3/2 E<D B3/2 c<d|D3/2 E<F E3:|
|:d3/2 A<A e3/2 A<A|f3/2 e<d dAB|d3/2 A<A e3/2 A<A|f<a f e2 f|
d3/2 A<A e3/2 f/g/e/|f3/2 e<d d3/2 c<B|B A<F A3/2 B<d|1 D3/2 E<F E3:|2 D3/2 E<F E3|D6||

